src/ikoner/flag-3.svg

<?xml version="1.0" encoding="UTF-8"?>
<svg width="19px" height="20px" viewBox="0 0 19 20" version="1.1" xmlns="http://www.w3.org/2000/svg" xmlns:xlink="http://www.w3.org/1999/xlink">
    <!-- Generator: Sketch 55.2 (78181) - https://sketchapp.com -->
    <title>Outline/05-votes-rewards/flag-3</title>
    <desc>Created with Sketch.</desc>
    <g id="↳-1" stroke="none" stroke-width="1" fill="none" fill-rule="evenodd">
        <g id="Kurs-detaljside" transform="translate(-918.000000, -479.000000)" fill="#3E3832">
            <g id="Group-6" transform="translate(918.000000, 424.000000)">
                <g id="frist" transform="translate(0.000000, 52.000000)">
                    <g id="Group-2">
                        <g id="Outline/05-votes-rewards/flag-3" transform="translate(0.000000, 3.000000)">
                            <path d="M18.1141667,10.875 C18.2533334,10.9425 18.35,11.085 18.35,11.25 C18.35,11.48 18.1633334,11.6666667 17.9333334,11.6666667 C17.9291667,11.6675 17.9233334,11.6675 17.9166667,11.6666667 L2.91666664,11.6666667 C2.68666664,11.6666667 2.49999997,11.48 2.49999997,11.25 L2.49999997,1.24999996 C2.49999997,1.01999996 2.68666664,0.833333295 2.91666664,0.833333295 L17.9166667,0.833333295 C18.0933334,0.833333295 18.2516667,0.945833296 18.31,1.11249996 C18.3683334,1.27916663 18.3158334,1.46499996 18.1775,1.5758333 L12.3333333,6.24999998 L18.1141667,10.875 Z M3.33333331,10.8333333 L16.7283334,10.8333333 L11.405,6.57583332 C11.3058333,6.49583332 11.2483333,6.37666665 11.2483333,6.24999998 C11.2483333,6.12333332 11.3066667,6.00333332 11.405,5.92416665 L16.7283334,1.66666663 L3.33333331,1.66666663 L3.33333331,10.8333333 Z M1.24999996,-4.16666281e-08 C1.47999996,-4.16666281e-08 1.66666663,0.186666626 1.66666663,0.416666627 L1.66666663,19.5833334 C1.66666663,19.8133334 1.47999996,20 1.24999996,20 C1.01999996,20 0.833333295,19.8133334 0.833333295,19.5833334 L0.833333295,0.416666627 C0.833333295,0.186666626 1.01999996,-4.16666281e-08 1.24999996,-4.16666281e-08 Z" id="Combined-Shape"></path>
                        </g>
                    </g>
                </g>
            </g>
        </g>
    </g>
</svg>

<svg width="20" height="20" viewBox="0 0 19 20" 
    xmlns="http://www.w3.org/2000/svg">
    <path d="M18.11 10.88a.42.42 0 0 1-.2.79h-15a.42.42 0 0 1-.41-.42v-10c0-.23.19-.42.42-.42h15a.42.42 0 0 1 .26.75l-5.85 4.67 5.78 4.63zm-14.78-.05h13.4L11.4 6.58a.42.42 0 0 1 0-.66l5.33-4.25H3.33v9.16zM1.25 0c.23 0 .42.19.42.42v19.16a.42.42 0 0 1-.84 0V.42c0-.23.19-.42.42-.42z" fill="#3E3832" fill-rule="evenodd"/>
</svg>
